src/IMAGE/logo-black.svg

<svg width="73" height="39" viewBox="0 0 73 39" fill="none" xmlns="http://www.w3.org/2000/svg">
<g clip-path="url(#clip0_230_53)">
<path d="M0.944745 31.2726C-0.639235 33.4332 -0.188894 36.4754 1.95061 38.0675C4.09011 39.6597 7.10859 39.1988 8.69257 37.0382L20.5822 20.8202C22.1662 18.6596 21.7158 15.6174 19.5763 14.0253C17.4368 12.4332 14.4183 12.894 12.8344 15.0547L0.944745 31.2726Z" fill="url(#paint0_linear_230_53)"/>
<path d="M24.8963 31.2605C23.3123 33.4211 23.7626 36.4633 25.9021 38.0554C28.0417 39.6475 31.0601 39.1867 32.6441 37.0261L54.1208 7.73087C55.7048 5.57025 55.2545 2.52806 53.115 0.935949C50.9755 -0.656163 47.957 -0.195299 46.373 1.96532L24.8963 31.2605Z" fill="#282828"/>
<path d="M20.6201 15.0015C19.051 12.8612 16.0568 12.4076 13.9324 13.9885C11.808 15.5694 11.3578 18.586 12.9269 20.7263L24.8704 37.0178C26.4395 39.1581 29.4337 39.6116 31.5581 38.0308C33.6825 36.4499 34.1327 33.4333 32.5635 31.2929L20.6201 15.0015Z" fill="#282828"/>
<path d="M40.4697 31.2828C38.8857 33.4434 39.3361 36.4856 41.4756 38.0778C43.6151 39.6699 46.6336 39.209 48.2175 37.0484L60.1071 20.8304C61.6911 18.6698 61.2408 15.6276 59.1013 14.0355C56.9618 12.4434 53.9433 12.9042 52.3593 15.0649L40.4697 31.2828Z" fill="url(#paint1_linear_230_53)"/>
<path d="M60.1463 15.0117C58.5771 12.8714 55.583 12.4178 53.4586 13.9987C51.3342 15.5796 50.884 18.5962 52.4531 20.7365L64.3966 37.028C65.9657 39.1683 68.9599 39.6218 71.0843 38.041C73.2087 36.4601 73.6588 33.4435 72.0897 31.3031L60.1463 15.0117Z" fill="#282828"/>
</g>
<defs>
<linearGradient id="paint0_linear_230_53" x1="1.86404" y1="37.6767" x2="15.0867" y2="20.647" gradientUnits="userSpaceOnUse">
<stop stop-color="#282828"/>
<stop offset="1" stop-color="#231F20"/>
</linearGradient>
<linearGradient id="paint1_linear_230_53" x1="41.3652" y1="0.00629504" x2="54.4876" y2="0.00629447" gradientUnits="userSpaceOnUse">
<stop stop-color="#282828"/>
<stop offset="1" stop-color="#231F20"/>
</linearGradient>
<clipPath id="clip0_230_53">
<rect width="73" height="39" fill="white"/>
</clipPath>
</defs>
</svg>

<svg xmlns="http://www.w3.org/2000/svg" fill="none" viewBox="0 0 73 39"><g clip-path="url(#a)"><path fill="url(#b)" d="M.94 31.27a4.9 4.9 0 0 0 1.01 6.8 4.8 4.8 0 0 0 6.74-1.03l11.9-16.22a4.9 4.9 0 0 0-1.01-6.8 4.8 4.8 0 0 0-6.75 1.03z"/><path fill="#282828" d="M24.9 31.26a4.9 4.9 0 0 0 1 6.8 4.8 4.8 0 0 0 6.74-1.03l21.48-29.3a4.9 4.9 0 0 0-1-6.8 4.8 4.8 0 0 0-6.75 1.04z"/><path fill="#282828" d="M20.62 15a4.76 4.76 0 0 0-6.69-1 4.84 4.84 0 0 0-1 6.74l11.94 16.29a4.76 4.76 0 0 0 6.69 1.01 4.84 4.84 0 0 0 1-6.74z"/><path fill="url(#c)" d="M40.47 31.28a4.9 4.9 0 0 0 1 6.8 4.8 4.8 0 0 0 6.75-1.03L60.1 20.83a4.9 4.9 0 0 0-1-6.8 4.8 4.8 0 0 0-6.75 1.03z"/><path fill="#282828" d="M60.15 15.01a4.76 4.76 0 0 0-6.7-1.01 4.84 4.84 0 0 0-1 6.74L64.4 37.03a4.76 4.76 0 0 0 6.68 1.01 4.84 4.84 0 0 0 1.01-6.74z"/></g><defs><linearGradient id="b" x1="1.86" x2="15.09" y1="37.68" y2="20.65" gradientUnits="userSpaceOnUse"><stop stop-color="#282828"/><stop offset="1" stop-color="#231f20"/></linearGradient><linearGradient id="c" x1="41.37" x2="54.49" y1=".01" y2=".01" gradientUnits="userSpaceOnUse"><stop stop-color="#282828"/><stop offset="1" stop-color="#231f20"/></linearGradient><clipPath id="a"><path fill="#fff" d="M0 0h73v39H0z"/></clipPath></defs></svg>
